src/assets/icon-lock.svg

<svg width="12" height="14" viewBox="0 0 12 14" fill="none" xmlns="http://www.w3.org/2000/svg">
<path d="M11.3913 6.26333C11.2118 6.09096 10.994 6.00485 10.7376 6.00485H10.4302V4.23202C10.4302 3.09946 10.0074 2.12701 9.1615 1.31451C8.31569 0.501971 7.30343 0.0957031 6.12422 0.0957031C4.94504 0.0957031 3.93258 0.501971 3.08683 1.31448C2.24094 2.12701 1.81814 3.09943 1.81814 4.23202V6.00485H1.5106C1.25437 6.00485 1.03645 6.09096 0.857014 6.26333C0.677576 6.43556 0.587891 6.64489 0.587891 6.89124V12.2094C0.587891 12.4555 0.67761 12.6649 0.857014 12.8373C1.03645 13.0095 1.25437 13.0957 1.5106 13.0957H10.7378C10.9943 13.0957 11.212 13.0096 11.3915 12.8373C11.5708 12.6649 11.6606 12.4555 11.6606 12.2094V6.89115C11.6608 6.64499 11.5708 6.43569 11.3913 6.26333ZM8.58481 6.00485H3.66362V4.23202C3.66362 3.57959 3.90396 3.0225 4.38454 2.56093C4.86519 2.0993 5.44504 1.86853 6.12432 1.86853C6.80366 1.86853 7.38338 2.09927 7.86406 2.56093C8.3445 3.02246 8.58481 3.57959 8.58481 4.23202V6.00485Z" fill="#818181"/>
</svg>

<svg width="12" height="14" fill="none" xmlns="http://www.w3.org/2000/svg"><path d="M11.391 6.263a.909.909 0 0 0-.653-.258h-.308V4.232c0-1.133-.423-2.105-1.268-2.917C8.316.502 7.303.095 6.123.095c-1.179 0-2.191.407-3.037 1.22-.846.812-1.269 1.784-1.269 2.917v1.773h-.307a.909.909 0 0 0-.654.258.838.838 0 0 0-.27.628v5.318c0 .247.09.456.27.628a.91.91 0 0 0 .654.259h9.227a.909.909 0 0 0 .654-.259.839.839 0 0 0 .269-.628V6.891a.837.837 0 0 0-.27-.628zm-2.806-.258H3.664V4.232c0-.652.24-1.21.72-1.671a2.42 2.42 0 0 1 1.74-.692c.68 0 1.26.23 1.74.692.48.461.72 1.019.72 1.671v1.773z" fill="#818181"/></svg>
